X:3
T:No.65 The Jig Of Slurs
C:jig
M:6/8
L:1/8
K:D
Add dcd|Bdd Add|Bdd Add|Bee edB|
Add dcd|Bdd Add|Bdd cde|fdc dcB:|
Aff fef|aff fed|Bee ede|
fee edB|Aff fef|aff fed|
Bcd cde|[1fdc dcB:|[2fdc dBA||
G2g gfg|agf gdB|Ggg gfg|agf g3|
G2g gfg|agf ged|e2e efg|fed edB:|
GBB Bdd|dee edB|GBB Bdd|dee efg|
GBB Bdd|dee edB|e2e efg|fed edB:|
